dist/files/common/icon-github.svg

<svg xmlns="http://www.w3.org/2000/svg" fill="none" viewBox="0 0 24 24"><path fill="#fff" d="M12 2C6.477 2 2 6.477 2 12c0 4.42 2.865 8.17 6.84 9.49.5.09.68-.22.68-.48s-.01-1.04-.01-1.84c-2.51.43-3.16-.4-3.36-.84-.11-.23-.5-1-1.05-1.26-.45-.21-.97-.78 0-.79.96-.01 1.6.9 1.84 1.31.37.66 1.12.99 1.9.99.81 0 1.5-.38 1.82-.7.12-.55.35-.93.61-1.13-3.04-.3-6.22-1.44-6.22-5.28 0-.98.35-1.8.96-2.44-.1-.27-.33-1.12.13-2.3 0 0 .68-.23 3.39 1.21A9.2 9.2 0 0 1 12 7.61c.85 0 1.68.11 2.47.33 2.71-1.44 3.39-1.21 3.39-1.21.46 1.18.23 2.03.13 2.3.61.64.96 1.46.96 2.44 0 3.85-3.19 4.98-6.23 5.27.33.27.62.78.62 1.59 0 1.21-.01 2.15-.01 2.68 0 .26.18.57.69.48A9.98 9.98 0 0 0 20.85 12c0-5.523-4.477-10-8.85-10"/></svg>

<svg width="24" height="24" viewBox="0 0 24 24" fill="none" xmlns="http://www.w3.org/2000/svg">
<path d="M12 2C6.477 2 2 6.477 2 12C2 16.42 4.865 20.17 8.84 21.49C9.34 21.58 9.52 21.27 9.52 21.01C9.52 20.75 9.51 19.97 9.51 19.17C7 19.6 6.35 18.77 6.15 18.33C6.04 18.1 5.65 17.33 5.1 17.07C4.65 16.86 4.13 16.29 5.1 16.28C6.06 16.27 6.7 17.18 6.94 17.59C7.31 18.25 8.06 18.58 8.84 18.58C9.65 18.58 10.34 18.2 10.66 17.88C10.78 17.33 11.01 16.95 11.27 16.75C8.23 16.45 5.05 15.31 5.05 11.47C5.05 10.49 5.4 9.67 6.01 9.03C5.91 8.76 5.68 7.91 6.14 6.73C6.14 6.73 6.82 6.5 9.53 7.94C10.32 7.72 11.15 7.61 12 7.61C12.85 7.61 13.68 7.72 14.47 7.94C17.18 6.5 17.86 6.73 17.86 6.73C18.32 7.91 18.09 8.76 17.99 9.03C18.6 9.67 18.95 10.49 18.95 11.47C18.95 15.32 15.76 16.45 12.72 16.74C13.05 17.01 13.34 17.52 13.34 18.33C13.34 19.54 13.33 20.48 13.33 21.01C13.33 21.27 13.51 21.58 14.02 21.49C18 20.17 20.85 16.42 20.85 12C20.85 6.477 16.373 2 12 2Z" fill="white"/>
</svg>
